public/images/hashed/4e8a3e6028e5e6f14b5491b3240bf14d.svg

<?xml version="1.0" encoding="UTF-8"?>
<svg width="80px" height="80px" viewBox="0 0 80 80" version="1.1" xmlns="http://www.w3.org/2000/svg" xmlns:xlink="http://www.w3.org/1999/xlink">
    <!-- Generator: Sketch 64 (93537) - https://sketch.com -->
    <title>Icon-Architecture/64/Arch_AWS-Personal-Health-Dashboard_64</title>
    <desc>Created with Sketch.</desc>
    <defs>
        <linearGradient x1="0%" y1="100%" x2="100%" y2="0%" id="linearGradient-1">
            <stop stop-color="#B0084D" offset="0%"></stop>
            <stop stop-color="#FF4F8B" offset="100%"></stop>
        </linearGradient>
    </defs>
    <g id="Icon-Architecture/64/Arch_AWS-Personal-Health-Dashboard_64" stroke="none" stroke-width="1" fill="none" fill-rule="evenodd">
        <g id="Icon-Architecture-BG/64/Management-Governance" fill="url(#linearGradient-1)">
            <rect id="Rectangle" x="0" y="0" width="80" height="80"></rect>
        </g>
        <path d="M13,42.9974161 L15,42.9974161 L15,40.9975943 L13,40.9975943 L13,42.9974161 Z M47.954,25.7009574 C47.825,25.2849944 47.44,25.0000198 47.003,24.9990199 L47,24.9990199 C46.565,24.9990199 46.179,25.2809948 46.047,25.6959578 L39.763,45.4471978 L33.881,34.5241712 C33.708,34.2041997 33.376,34.0032176 33.013,33.998218 L33,33.998218 C32.642,33.998218 32.31,34.1902009 32.132,34.5021731 L28.42,40.9975943 L17,40.9975943 L17,42.9974161 L29,42.9974161 C29.359,42.9974161 29.691,42.8054332 29.868,42.493461 L32.974,37.0589453 L39.119,48.4709284 C39.295,48.7968994 39.635,48.9968815 40,48.9968815 C40.031,48.9968815 40.062,48.9958816 40.093,48.9928819 C40.493,48.9558852 40.831,48.6829095 40.953,48.3009435 L46.992,29.3246345 L51.046,42.2964786 C51.176,42.7134414 51.563,42.9974161 52,42.9974161 L67,42.9974161 L67,40.9975943 L52.736,40.9975943 L47.954,25.7009574 Z M40.003,63.3666011 L25.606,44.7852568 L24.026,46.0101477 L39.21,65.6084013 C39.399,65.8533795 39.67,66.0313636 40,65.9953669 C40.308,65.9953669 40.599,65.8533795 40.788,65.6114011 L56.081,46.0121475 L54.505,44.7822571 L40.003,63.3666011 Z M14.717,34.0792108 C13.566,31.9643992 13,29.8415884 13,27.7087785 C13,20.149452 19.299,14 27.04,14 C33.231,14 38.016,16.7997505 40,21.2003584 C41.985,16.7997505 46.77,14 52.96,14 C60.702,14 67,20.149452 67,27.7087785 C67,29.7985922 66.451,31.8934056 65.367,33.9332238 C65.049,34.5341703 64.665,35.1361166 64.195,35.7680603 L63.314,36.8109674 L60.743,39.6667129 L59.257,38.3288321 L62.63,34.5241712 C62.999,34.0252156 63.329,33.5092616 63.599,32.9973072 C64.53,31.2464632 65,29.4686216 65,27.7087785 C65,21.2523538 59.599,15.9998218 52.96,15.9998218 C47.007,15.9998218 41,19.0925462 41,25.9989308 C41,26.5518815 40.553,26.9988417 40,26.9988417 C39.448,26.9988417 39,26.5518815 39,25.9989308 C39,19.0925462 32.993,15.9998218 27.04,15.9998218 C20.402,15.9998218 15,21.2523538 15,27.7087785 C15,29.5046184 15.485,31.305458 16.439,33.0633013 L19.843,38.3788277 L18.158,39.4567316 L14.717,34.0792108 Z" id="AWS-Personal-Health-Dashboard_Icon_64_Squid" fill="#FFFFFF"></path>
    </g>
</svg>

<svg xmlns="http://www.w3.org/2000/svg" width="80" height="80"><defs><linearGradient id="a" x1="0%" x2="100%" y1="100%" y2="0%"><stop offset="0%" stop-color="#B0084D"/><stop offset="100%" stop-color="#FF4F8B"/></linearGradient></defs><g fill="none" fill-rule="evenodd"><path fill="url(#a)" d="M0 0h80v80H0z"/><path fill="#FFF" d="M13 42.997h2v-2h-2v2Zm34.954-17.296a.998.998 0 0 0-.951-.702H47a1 1 0 0 0-.953.697l-6.284 19.751-5.882-10.923a1.002 1.002 0 0 0-.868-.526H33a1 1 0 0 0-.868.504l-3.712 6.496H17v2h12a.997.997 0 0 0 .868-.505l3.106-5.434 6.145 11.412a1.002 1.002 0 0 0 1.834-.17l6.039-18.976 4.054 12.971a1 1 0 0 0 .954.701h15v-2H52.736l-4.782-15.296Zm-7.951 37.666L25.606 44.785l-1.58 1.225L39.21 65.608c.189.245.46.423.79.387a1 1 0 0 0 .788-.384l15.293-19.599-1.576-1.23-14.502 18.585ZM14.717 34.079C13.566 31.964 13 29.842 13 27.71 13 20.149 19.299 14 27.04 14c6.191 0 10.976 2.8 12.96 7.2 1.985-4.4 6.77-7.2 12.96-7.2C60.702 14 67 20.15 67 27.709c0 2.09-.549 4.184-1.633 6.224-.318.601-.702 1.203-1.172 1.835l-.881 1.043-2.571 2.856-1.486-1.338 3.373-3.805c.369-.499.699-1.015.969-1.527C64.53 31.247 65 29.47 65 27.71c0-6.457-5.401-11.71-12.04-11.71C47.007 16 41 19.094 41 26a.999.999 0 1 1-2 0c0-6.906-6.007-10-11.96-10C20.402 16 15 21.253 15 27.71c0 1.796.485 3.596 1.439 5.354l3.404 5.316-1.685 1.078-3.441-5.378Z"/></g></svg>
